X:1
T:Kingdom, HM (repeat)
T:Kingdom, HM (repeat)
T:John Knowles Paine, 1873
T:Public Domain Courtesy of the Cyber Hymnal™
C:John Knowles Paine, 1873
Z:Public Domain
Z:Courtesy of the Cyber Hymnal™
%%score ( 1 2 ) ( 3 4 )
L:1/8
Q:1/4=110
M:4/4
K:C
V:1 treble 
V:2 treble 
V:3 bass 
V:4 bass 
V:1
 G2 | c3 G E2 C2 | G6 [DF]2 | [CE]2 [CG]2 [CA]2 [Fd]2 | c6 G2 | [GA]2 (Bc) [GB]2 [Gd]2 | %6
 [Gc]3 [Gd] [Ge]2 [Fc]2 | ([EA]2 [Ac]2 [GB]2) [^FA]2 | ([^FA]4 G2) G2 | [Gd]3 [GB] [Gc]2 [CG]2 | %10
 [B,F]3 [B,G] [CE]2 G2 | [Gd]3 [Gd] (cB) (AG) | [Cc]3 [CG] [CE]2 C2 | E2 G2 [Ec]2 [Fd]2 | %14
 [Ge]4 d4 | !fermata![Ec]6 |] %16
V:2
 G2 | c3 G E2 C2 | (D2 B,2 C2) x2 | x8 | (G2 ^F2 B2) G2 | x2 G2 x4 | x8 | x8 | x4 G2 G2 | x8 | %10
 x6 G2 | x4 G2 D2 | x6 C2 | E2 G2 x4 | x4 (G2 F2) | x6 |] %16
V:3
 G,2 | C3 G, E,2 C,2 | G,6 [B,,G,]2 | [C,G,]2 [E,G,]2 [F,C]2 [D,D]2 | (E4 D2) [G,B,]2 | %5
 [G,C]2 (DE) [G,D]2 [F,B,]2 | [G,C]3 [D,B,] [C,C]2 [C,G,]2 | ([C,C]2 [A,,E]2 [D,D]2) [D,C]2 | %8
 (C4 B,2) G,2 | [F,B,]3 [F,D] [E,C]2 [E,C]2 | [D,G,]3 [D,G,] [C,G,]2 [E,G,]2 | %11
 [F,B,]3 [F,B,] [F,D]2 [F,B,]2 | [E,G,]3 [E,G,] [C,G,]2 C,2 | E,2 G,2 C2 [A,C]2 | %14
 (C2 B,A,) [G,,B,]4 | !fermata![C,C]6 |] %16
V:4
 G,2 | C3 G, E,2 C,2 | (B,,2 G,,2 A,,2) x2 | x8 | G,6 x2 | x2 G,2 x4 | x8 | x8 | G,,6 G,2 | x8 | %10
 x8 | x8 | x6 C,2 | E,2 G,2 [A,C]2 x2 | G,4 x4 | x6 |] %16

